X:7719
T:Tune for Frankie, A
O:england
R:jig
C:Maireád Ní Mhaonaigh
S:Altan, Blackwater
H:Composed in memory of Frankie Kennedy, Mairead's husband and a great flu
H:player.
N:Yes, the 1st part has an odd number of beats
D:Altan "Blackwater" (Virgin, ISBN 7243 8 41381 2 7)
E:10
M:27/8
L:1/8
K:GDor
D2G FDC ~A,3 ~F3 ~A,3 ~C3 ~A,3 G,A,G, G, (3A,B,C|D2G FDC ~A,3 ~F3 ~A,3 C
A,C  (3A,B,C A, G,A,G, G, (3A,B,C:|
M:6/8
DGA Bdc|=BGE FED|1 ~F3 ~G3|Add d3:|2 FCA, DCA,|G,A,G, G,3:|


